src/images/TitleTreatment-01.svg

<svg width="678" height="367" viewBox="0 0 678 367" fill="none" xmlns="http://www.w3.org/2000/svg"><path d="M371.705 168.323c.013-8.041-6.495-14.57-14.537-14.582-8.041-.013-14.57 6.495-14.582 14.537l-.077 48.84c-.013 8.041 6.496 14.57 14.537 14.583 8.041.012 14.57-6.496 14.583-14.538l.076-48.84z" fill="#E85F67"/><path d="M342.549 191.318l29.12.046-.041 26.17a14.558 14.558 0 0 1-14.583 14.537 14.558 14.558 0 0 1-14.537-14.583l.041-26.17z" fill="#F58878"/><path d="M357.26 154a14.084 14.084 0 0 0-2 .13 14.547 14.547 0 0 1 5.29 11.23l-.08 48.84a14.601 14.601 0 0 1-12.62 14.4 14.437 14.437 0 0 0 9.25 3.35 14.598 14.598 0 0 0 14.58-14.53l.08-48.84a14.6 14.6 0 0 0-14.5-14.58z" fill="#F7C2B7"/><path d="M336.39 112.15c22.335 0 40.44-18.106 40.44-40.44 0-22.334-18.105-40.44-40.44-40.44-22.334 0-40.44 18.106-40.44 40.44 0 22.334 18.106 40.44 40.44 40.44z" fill="#966992"/><path d="M364.82 42.8a40.428 40.428 0 0 1-32.967 65.278A40.43 40.43 0 0 1 304.5 96.4a40.423 40.423 0 0 0 44.513 13.544 40.425 40.425 0 0 0 27.784-37.321A40.42 40.42 0 0 0 364.82 42.8z" fill="#966992" opacity=".42"/><path d="M351.08 34.3l-39.93 69.06c1.64 1.33.91 1.16 2.8 2.26 1.89 1.1 1.38.54 3.35 1.29l39.93-69.06c-1.64-1.33-.91-1.16-2.8-2.25-1.89-1.09-1.37-.54-3.35-1.3z" fill="#966992" opacity=".6"/><path d="M19.28 34h8.91v77h-8.91V34zM95.51 94l27.72-60h11.33v77H126V46.88L99.91 104h-8.8L65 46.88V111h-8.54V34H67.9l27.61 60zM162.94 34h21.12c14 0 23 8.25 23 22.22 0 13.97-9.46 22.55-23 22.55h-12.21V111h-8.91V34zm20.35 36.85c9.24 0 14.63-5.72 14.63-14.63s-5.39-14.3-14.63-14.3h-11.44v28.94l11.44-.01zM229.82 34h19.58c15.73 0 24 7.92 24 21.34 0 9.13-4.51 17.49-13.42 20.35L279.1 111h-9.9l-17.38-33.43h-13.09V111h-8.91V34zm19.58 35.76c9 0 14.63-4.18 14.63-14.3 0-8.14-4.29-13.53-15.18-13.53h-10.12v27.83h10.67zM417.26 111L388 34h9.79L422 100.45 446.3 34h9.79l-29.26 77h-9.57zM476.77 34h8.9v77h-8.9V34zM514 34h8.91l42.46 62.92V34h8.8v77h-8.8l-42.46-62.7V111H514V34zM665.41 43.8l-5.71 5.94c-3.53-3.41-10.34-8.8-22.45-8.8-17.7 0-29.81 13.64-29.81 31.68 0 18.59 12.55 31.57 29.71 31.57 12.86 0 20.13-5.61 22.55-8V80h-17.16v-7.82h25.74V100c-8.37 8.47-18.37 12.43-31.46 12.43-21.9 0-38.73-16.39-38.73-39.82 0-22.55 16.4-40 38.95-40 15.29-.03 24.42 7.12 28.37 11.19zM134.39 214l27.72-60h11.33v77h-8.58v-64.12L138.79 224H130l-26.07-57.09V231h-8.59v-77h11.44l27.61 60zM201.82 154h36.52v8.14h-27.61v25.63h24.09v8h-24.09V223h28.82v8h-37.73v-77zM265 154h15.8c26.29 0 41.25 14.41 41.25 38.5 0 25.52-15.51 38.5-41.25 38.5H265v-77zm17.6 69.08c18.48 0 30.36-10.45 30.36-30.58 0-19.25-11.88-30.47-30.36-30.47h-8.69v61.05h8.69zM453.83 223.64a38.638 38.638 0 0 1-24.86 8.8c-22.55 0-39.05-17.16-39.05-39.93s17.05-39.93 38.83-39.93a38.216 38.216 0 0 1 23.87 8l-2.86 7.92a33.834 33.834 0 0 0-20.76-7.56c-17.05 0-29.81 13.64-29.81 31.57s12.21 31.57 30 31.57a33.823 33.823 0 0 0 21.89-8.25l2.75 7.81zM488.37 206l-9.24 25h-9l28.82-77h9l28.82 77h-9l-9.24-25h-30.16zm15.07-42.24l-12.32 34.54h24.75l-12.43-34.54zM557.89 154h8.91v69h28.82v8h-37.73v-77zM27.36 326l-9.24 25h-9l28.82-77h9l28.82 77h-9l-9.26-25H27.36zm15.07-42.2l-12.32 34.54h24.75L42.43 283.8zM96.88 274h15.84C139 274 154 288.42 154 312.51 154 338 138.46 351 112.72 351H96.88v-77zm17.6 69.08c18.48 0 30.36-10.45 30.36-30.58 0-19.25-11.88-30.47-30.36-30.47h-8.69v61l8.69.05zM178 274h8.91v33.77h40.92V274h8.91v77h-8.91v-35.08h-40.97V351H178v-77zM265.07 274h36.52v8.14H274v25.63h24.09v8H274V343h28.8v8h-37.73v-77zM328.21 274h19.58c15.73 0 24 7.92 24 21.34 0 9.13-4.51 17.49-13.42 20.35L377.49 351h-9.9l-17.38-33.44h-13.09V351h-8.91v-77zm19.58 35.75c9 0 14.63-4.18 14.63-14.3 0-8.14-4.29-13.53-15.18-13.53h-10.12v27.83h10.67zM399.38 274h36.52v8.14h-27.61v25.63h24.09v8h-24.09V343h28.82v8h-37.73v-77zM462.41 274h8.91l42.46 62.92V274h8.8v77h-8.8l-42.46-62.7V351h-8.91v-77zM610.47 343.64a38.638 38.638 0 0 1-24.86 8.8c-22.55 0-39.05-17.16-39.05-39.93s17.05-39.94 38.83-39.94a38.214 38.214 0 0 1 23.87 8l-2.86 7.92a33.836 33.836 0 0 0-20.79-7.59c-17.05 0-29.81 13.64-29.81 31.57s12.21 31.57 30 31.57a33.823 33.823 0 0 0 21.89-8.25l2.78 7.85zM634.12 274h36.52v8.14H643v25.63h24.09v8H643V343h28.82v8h-37.7v-77z" fill="#184E67"/></svg>

<svg width="678" height="367" viewBox="0 0 678 367" fill="none" xmlns="http://www.w3.org/2000/svg">
<path d="M371.705 168.324C371.718 160.282 365.209 153.753 357.168 153.741C349.127 153.728 342.598 160.237 342.585 168.278L342.509 217.118C342.496 225.159 349.004 231.688 357.046 231.701C365.087 231.713 371.616 225.205 371.629 217.164L371.705 168.324Z" fill="#E85F67"/>
<path d="M342.549 191.318L371.669 191.363L371.628 217.533C371.622 221.395 370.082 225.096 367.347 227.822C364.612 230.548 360.907 232.077 357.045 232.071C353.184 232.064 349.483 230.525 346.756 227.79C344.03 225.055 342.502 221.349 342.508 217.488L342.549 191.318Z" fill="#F58878"/>
<g style="mix-blend-mode:multiply">
<g style="mix-blend-mode:multiply">
<path d="M357.26 154C356.591 153.996 355.923 154.039 355.26 154.13C356.916 155.496 358.248 157.211 359.163 159.153C360.077 161.094 360.551 163.214 360.55 165.36L360.47 214.2C360.454 217.718 359.169 221.112 356.85 223.758C354.532 226.403 351.336 228.123 347.85 228.6C350.446 230.765 353.72 231.951 357.1 231.95C360.957 231.945 364.655 230.414 367.386 227.692C370.118 224.969 371.662 221.277 371.68 217.42L371.76 168.58C371.755 164.729 370.228 161.035 367.512 158.304C364.796 155.574 361.111 154.026 357.26 154Z" fill="#F7C2B7"/>
</g>
</g>
<path d="M336.39 112.15C358.725 112.15 376.83 94.0444 376.83 71.71C376.83 49.3756 358.725 31.27 336.39 31.27C314.056 31.27 295.95 49.3756 295.95 71.71C295.95 94.0444 314.056 112.15 336.39 112.15Z" fill="#966992"/>
<g style="mix-blend-mode:multiply" opacity="0.42">
<path d="M364.82 42.8C371.138 50.9018 374.135 61.1049 373.201 71.3364C372.267 81.5679 367.473 91.0601 359.793 97.8845C352.113 104.709 342.123 108.354 331.853 108.078C321.583 107.802 311.803 103.627 304.5 96.4001C307.899 100.759 312.156 104.375 317.008 107.023C321.86 109.672 327.203 111.298 332.708 111.8C338.213 112.303 343.762 111.671 349.013 109.944C354.264 108.217 359.105 105.432 363.237 101.76C367.369 98.0882 370.704 93.6082 373.037 88.5966C375.369 83.5851 376.649 78.1485 376.797 72.6228C376.946 67.0971 375.959 61.5997 373.899 56.4702C371.839 51.3407 368.749 46.6882 364.82 42.8Z" fill="#966992"/>
</g>
<g style="mix-blend-mode:multiply">
<g style="mix-blend-mode:multiply" opacity="0.6">
<path d="M351.08 34.3L311.15 103.36C312.79 104.69 312.06 104.52 313.95 105.62C315.84 106.72 315.33 106.16 317.3 106.91L357.23 37.85C355.59 36.52 356.32 36.69 354.43 35.6C352.54 34.51 353.06 35.06 351.08 34.3Z" fill="#966992"/>
</g>
</g>
<path d="M19.28 34H28.19V111H19.28V34Z" fill="#184E67"/>
<path d="M95.5102 94L123.23 34H134.56V111H126V46.88L99.9102 104H91.1102L65.0002 46.88V111H56.4602V34H67.9002L95.5102 94Z" fill="#184E67"/>
<path d="M162.94 34H184.06C198.06 34 207.06 42.25 207.06 56.22C207.06 70.19 197.6 78.77 184.06 78.77H171.85V111H162.94V34ZM183.29 70.85C192.53 70.85 197.92 65.13 197.92 56.22C197.92 47.31 192.53 41.92 183.29 41.92H171.85V70.86L183.29 70.85Z" fill="#184E67"/>
<path d="M229.82 34H249.4C265.13 34 273.4 41.92 273.4 55.34C273.4 64.47 268.89 72.83 259.98 75.69L279.1 111H269.2L251.82 77.57H238.73V111H229.82V34ZM249.4 69.76C258.4 69.76 264.03 65.58 264.03 55.46C264.03 47.32 259.74 41.93 248.85 41.93H238.73V69.76H249.4Z" fill="#184E67"/>
<path d="M417.26 111L388 34H397.79L422 100.45L446.3 34H456.09L426.83 111H417.26Z" fill="#184E67"/>
<path d="M476.77 34H485.67V111H476.77V34Z" fill="#184E67"/>
<path d="M514 34H522.91L565.37 96.92V34H574.17V111H565.37L522.91 48.3V111H514V34Z" fill="#184E67"/>
<path d="M665.41 43.8L659.7 49.74C656.17 46.33 649.36 40.94 637.25 40.94C619.55 40.94 607.44 54.58 607.44 72.62C607.44 91.21 619.99 104.19 637.15 104.19C650.01 104.19 657.28 98.58 659.7 96.19V80H642.54V72.18H668.28V100C659.91 108.47 649.91 112.43 636.82 112.43C614.92 112.43 598.09 96.04 598.09 72.61C598.09 50.06 614.49 32.61 637.04 32.61C652.33 32.58 661.46 39.73 665.41 43.8Z" fill="#184E67"/>
<path d="M134.39 214L162.11 154H173.44V231H164.86V166.88L138.79 224H130L103.93 166.91V231H95.3401V154H106.78L134.39 214Z" fill="#184E67"/>
<path d="M201.82 154H238.34V162.14H210.73V187.77H234.82V195.77H210.73V223H239.55V231H201.82V154Z" fill="#184E67"/>
<path d="M265 154H280.8C307.09 154 322.05 168.41 322.05 192.5C322.05 218.02 306.54 231 280.8 231H265V154ZM282.6 223.08C301.08 223.08 312.96 212.63 312.96 192.5C312.96 173.25 301.08 162.03 282.6 162.03H273.91V223.08H282.6Z" fill="#184E67"/>
<path d="M453.83 223.64C446.832 229.398 438.032 232.513 428.97 232.44C406.42 232.44 389.92 215.28 389.92 192.51C389.92 169.74 406.97 152.58 428.75 152.58C437.382 152.474 445.796 155.294 452.62 160.58L449.76 168.5C443.881 163.728 436.571 161.066 429 160.94C411.95 160.94 399.19 174.58 399.19 192.51C399.19 210.44 411.4 224.08 429.19 224.08C437.236 224.021 444.997 221.096 451.08 215.83L453.83 223.64Z" fill="#184E67"/>
<path d="M488.37 206L479.13 231H470.13L498.95 154H507.95L536.77 231H527.77L518.53 206H488.37ZM503.44 163.76L491.12 198.3H515.87L503.44 163.76Z" fill="#184E67"/>
<path d="M557.89 154H566.8V223H595.62V231H557.89V154Z" fill="#184E67"/>
<path d="M27.3601 326L18.1201 351H9.12012L37.9401 274H46.9401L75.7601 351H66.7601L57.5001 326H27.3601ZM42.4301 283.8L30.1101 318.34H54.8601L42.4301 283.8Z" fill="#184E67"/>
<path d="M96.8801 274H112.72C139 274 154 288.42 154 312.51C154 338 138.46 351 112.72 351H96.8801V274ZM114.48 343.08C132.96 343.08 144.84 332.63 144.84 312.5C144.84 293.25 132.96 282.03 114.48 282.03H105.79V343.03L114.48 343.08Z" fill="#184E67"/>
<path d="M178 274H186.91V307.77H227.83V274H236.74V351H227.83V315.92H186.86V351H178V274Z" fill="#184E67"/>
<path d="M265.07 274H301.59V282.14H274V307.77H298.09V315.77H274V343H302.8V351H265.07V274Z" fill="#184E67"/>
<path d="M328.21 274H347.79C363.52 274 371.79 281.92 371.79 295.34C371.79 304.47 367.28 312.83 358.37 315.69L377.49 351H367.59L350.21 317.56H337.12V351H328.21V274ZM347.79 309.75C356.79 309.75 362.42 305.57 362.42 295.45C362.42 287.31 358.13 281.92 347.24 281.92H337.12V309.75H347.79Z" fill="#184E67"/>
<path d="M399.38 274H435.9V282.14H408.29V307.77H432.38V315.77H408.29V343H437.11V351H399.38V274Z" fill="#184E67"/>
<path d="M462.41 274H471.32L513.78 336.92V274H522.58V351H513.78L471.32 288.3V351H462.41V274Z" fill="#184E67"/>
<path d="M610.47 343.64C603.472 349.398 594.672 352.513 585.61 352.44C563.06 352.44 546.56 335.28 546.56 312.51C546.56 289.74 563.61 272.57 585.39 272.57C594.022 272.464 602.436 275.284 609.26 280.57L606.4 288.49C600.517 283.701 593.195 281.028 585.61 280.9C568.56 280.9 555.8 294.54 555.8 312.47C555.8 330.4 568.01 344.04 585.8 344.04C593.846 343.981 601.607 341.056 607.69 335.79L610.47 343.64Z" fill="#184E67"/>
<path d="M634.12 274H670.64V282.14H643V307.77H667.09V315.77H643V343H671.82V351H634.12V274Z" fill="#184E67"/>
</svg>
